X:1
T:Cherokee Shufﬂe
L:1/8
M:4/4
I:linebreak $
K:A
V:1 treble nm="Voice" snm="Voice"
V:1
 EF !arpeggio!A2 AB cd | ABAF E2 EF | A2 AB cd e2 | f2 ff f2 g2 |$ a2 aa a2 f2 | efed cB A2 | %6
 cBAc BAFE | A6 z2 :|$ z2 a2 g2 =g2 |: f2 fg a2 f2 | efed cB A2 | f2 fg a2 f2 | e4 c4 | %13
 f2 fg a2 f2 |$ efed cBAB | cBAB cd e2 | f4 ff f2 | a2 f2 edcB | A6 z2 :| %19
